X:1
T:Title
%%score { ( 1 3 ) | ( 2 4 5 ) }
L:1/8
Q:1/4=100
M:4/4
K:F
V:1 treble nm="Grand Piano"
V:3 treble 
V:2 bass 
V:4 bass 
V:5 bass 
V:1
 A4 G2 E2 | F3 G A4 | B4 d3 B | [FA]4 G4 | [CFc]4 [CEc]2 [Ec]2 | c3 c c4 | =B4 A3 B | [Ec]8 | %8
w: R.~Menthal * *||||||||
 A4 G2 E2 | z4 A4 | B4 d3 B | [FA]4 G4 | [A,_EF]4 [B,EG]2 [CEA]2 | %13
w: |||||
 [B,DB]3[K:bass] [F,B,D] [F,A,C]4 | C2- [CF]2 [CEA]3 [B,EG] | [A,F]8 |] %16
w: |||
V:2
 [F,CF]4 [F,B,E]2 [F,G,C]2 | [F,A,C]3 [F,B,C] [F,CF]4 | [F,DF]4 [F,B,F]3 [F,DF] | z4 E4 | %4
 A,,4 C,2 [C,B,]2 | [F,A,F]3 [G,B,E] [A,CF]4 | [G,DF]4 [G,CF]3 [G,DF] | [C,C]8 | %8
 [F,C]4 [F,B,C]2 [F,G,C]2 | [F,A,C]3 [F,B,C] C2 z2 | [F,DF]4 [F,B,F]3 [F,DF] | z4 E4 | %12
 F,4 F,2 F,2 | B,,3 B,, E,,4 | z2 A,2 C,3 C, | F,8 |] %16
V:3
 x8 | x8 | x8 | C8 | x8 | x8 | x8 | x8 | x8 | F3 G z2 F2 | x8 | x8 | x8 | x3[K:bass] x5 | %14
 [G,E]2 z2 z4 | x8 |] %16
V:4
 x8 | x8 | x8 | C,6 z2 | x8 | x8 | x8 | x8 | x8 | z4 F,4 | x8 | [C,C]8 | x8 | x8 | C,4 z4 | x8 |] %16
V:5
 x8 | x8 | x8 | z4 z2 B,,2 | x8 | x8 | x8 | x8 | x8 | x8 | x8 | x8 | x8 | x8 | x8 | x8 |] %16

